Adwaita++/actions/16/filesaveas.svg

<svg height="16" viewBox="0 0 16 16" width="16" xmlns="http://www.w3.org/2000/svg">
  <path d="m5.9980469 1.0195312v6h-2.3398438l4.3320313 6.3046878 4.3808596-6.3046878h-2.3730471v-5.9707031zm-4.9980469 13.0117188v1.96875h14.005859l-.005859-1.96875z" fill="#474747"/>
</svg>

<svg xmlns="http://www.w3.org/2000/svg" width="16" height="16" viewBox="0 0 16 16">
 <defs>
  <style id="current-color-scheme" type="text/css">
   .ColorScheme-Text { color:#474747; } .ColorScheme-Highlight { color:#4285f4; }
  </style>
 </defs>
 <path style="fill:currentColor" class="ColorScheme-Text" d="M 5.9980469 1.0195312 L 5.9980469 7.0195312 L 3.6582031 7.0195312 L 7.9902344 13.324219 L 12.371094 7.0195312 L 9.9980469 7.0195312 L 9.9980469 1.0488281 L 5.9980469 1.0195312 z M 1 14.03125 L 1 16 L 15.005859 16 L 15 14.03125 L 1 14.03125 z"/>
</svg>
